src/dribbble/dribbble.svg

<svg xmlns="http://www.w3.org/2000/svg" width="128" height="128"><path fill-rule="evenodd" clip-rule="evenodd" fill="#fff" d="M103.187 55.945c-.526-2.571-1.311-5.1-2.333-7.516-1.003-2.371-2.244-4.658-3.689-6.797-1.43-2.117-3.072-4.107-4.881-5.916-1.809-1.809-3.799-3.451-5.916-4.881-2.139-1.445-4.425-2.686-6.797-3.689-2.417-1.022-4.946-1.807-7.516-2.333-2.635-.54-5.345-.813-8.055-.813s-5.42.273-8.055.813c-2.571.526-5.1 1.311-7.516 2.333-2.371 1.003-4.658 2.244-6.797 3.689-2.117 1.43-4.107 3.072-5.916 4.881-1.809 1.809-3.451 3.799-4.881 5.916-1.445 2.139-2.686 4.425-3.689 6.797-1.022 2.417-1.807 4.946-2.333 7.516-.54 2.635-.813 5.345-.813 8.055s.273 5.42.813 8.055c.526 2.571 1.311 5.1 2.333 7.516 1.003 2.371 2.244 4.658 3.689 6.797 1.43 2.117 3.072 4.107 4.881 5.916 1.809 1.809 3.799 3.451 5.916 4.881 2.139 1.445 4.425 2.686 6.797 3.689 2.417 1.022 4.945 1.807 7.516 2.333 2.635.54 5.345.813 8.055.813s5.42-.273 8.055-.813c2.571-.526 5.1-1.311 7.516-2.333 2.371-1.003 4.658-2.244 6.797-3.689 2.117-1.43 4.107-3.072 5.916-4.881 1.809-1.809 3.451-3.799 4.881-5.916 1.445-2.139 2.686-4.426 3.689-6.797 1.022-2.417 1.807-4.945 2.333-7.516.54-2.635.813-5.345.813-8.055s-.273-5.42-.813-8.055zm-5.037 7.712c-.499-.109-12.058-2.593-23.793-1.117-.24-.586-.484-1.174-.736-1.765-.711-1.669-1.476-3.325-2.272-4.954 13.485-5.505 18.963-13.419 19.033-13.519 4.791 5.817 7.688 13.249 7.768 21.355zm-11.587-25.293c-.086.133-4.955 7.538-17.843 12.369-5.84-10.73-12.256-19.251-12.769-19.929 2.582-.624 5.275-.963 8.049-.963 8.65 0 16.544 3.222 22.563 8.523zm-30.744-7.53l-.005.003-.097.02.102-.023zm-6.393 2.269c.453.61 6.771 9.175 12.684 19.685-16.403 4.355-30.639 4.185-31.539 4.169 2.218-10.578 9.328-19.352 18.855-23.854zm-19.585 30.897c0-.363.016-.722.027-1.083.603.016 17.483.398 35.071-4.866.98 1.917 1.914 3.862 2.773 5.805-.452.127-.901.263-1.347.407-18.434 5.959-27.785 22.549-27.785 22.549l.015.018c-5.441-6.051-8.754-14.052-8.754-22.83zm34.159 34.159c-8.268 0-15.85-2.938-21.759-7.827.451.361.764.597.764.597s6.55-14.281 26.809-21.34l.226-.074c4.808 12.494 6.792 22.955 7.298 25.942-4.099 1.739-8.606 2.702-13.338 2.702zm19.089-5.827c-.346-2.06-2.169-12.086-6.649-24.398 11.025-1.765 20.579 1.255 21.286 1.487-1.518 9.521-6.967 17.733-14.637 22.911z"/></svg>

<?xml version="1.0" encoding="UTF-8" standalone="no"?>
<!-- Created with Inkscape (http://www.inkscape.org/) -->

<svg
   xmlns:dc="http://purl.org/dc/elements/1.1/"
   xmlns:cc="http://creativecommons.org/ns#"
   xmlns:rdf="http://www.w3.org/1999/02/22-rdf-syntax-ns#"
   xmlns:svg="http://www.w3.org/2000/svg"
   xmlns="http://www.w3.org/2000/svg"
   xmlns:inkscape="http://www.inkscape.org/namespaces/inkscape"
   version="1.1"
   width="128"
   height="128"
   id="svg2">
  <metadata
     id="metadata10">
    <rdf:RDF>
      <cc:Work
         rdf:about="">
        <dc:format>image/svg+xml</dc:format>
        <dc:type
           rdf:resource="http://purl.org/dc/dcmitype/StillImage" />
      </cc:Work>
    </rdf:RDF>
  </metadata>
  <defs
     id="defs8" />
  <path
     d="m 103.187,55.945 c -0.526,-2.571 -1.311,-5.1 -2.333,-7.516 C 99.851,46.058 98.61,43.771 97.165,41.632 95.735,39.515 94.093,37.525 92.284,35.716 90.475,33.907 88.485,32.265 86.368,30.835 84.229,29.39 81.943,28.149 79.571,27.146 77.154,26.124 74.625,25.339 72.055,24.813 69.42,24.273 66.71,24 64,24 c -2.71,0 -5.42,0.273 -8.055,0.813 -2.571,0.526 -5.1,1.311 -7.516,2.333 -2.371,1.003 -4.658,2.244 -6.797,3.689 -2.117,1.43 -4.107,3.072 -5.916,4.881 -1.809,1.809 -3.451,3.799 -4.881,5.916 -1.445,2.139 -2.686,4.425 -3.689,6.797 -1.022,2.417 -1.807,4.946 -2.333,7.516 C 24.273,58.58 24,61.29 24,64 c 0,2.71 0.273,5.42 0.813,8.055 0.526,2.571 1.311,5.1 2.333,7.516 1.003,2.371 2.244,4.658 3.689,6.797 1.43,2.117 3.072,4.107 4.881,5.916 1.809,1.809 3.799,3.451 5.916,4.881 2.139,1.445 4.425,2.686 6.797,3.689 2.417,1.022 4.945,1.807 7.516,2.333 2.635,0.54 5.345,0.813 8.055,0.813 2.71,0 5.42,-0.273 8.055,-0.813 2.571,-0.526 5.1,-1.311 7.516,-2.333 2.371,-1.003 4.658,-2.244 6.797,-3.689 2.117,-1.43 4.107,-3.072 5.916,-4.881 1.809,-1.809 3.451,-3.799 4.881,-5.916 1.445,-2.139 2.686,-4.426 3.689,-6.797 1.022,-2.417 1.807,-4.945 2.333,-7.516 C 103.727,69.42 104,66.71 104,64 c 0,-2.71 -0.273,-5.42 -0.813,-8.055 z M 98.15,63.657 C 97.651,63.548 86.092,61.064 74.357,62.54 74.117,61.954 73.873,61.366 73.621,60.775 72.91,59.106 72.145,57.45 71.349,55.821 84.834,50.316 90.312,42.402 90.382,42.302 95.173,48.119 98.07,55.551 98.15,63.657 z M 86.563,38.364 C 86.477,38.497 81.608,45.902 68.72,50.733 62.88,40.003 56.464,31.482 55.951,30.804 58.533,30.18 61.226,29.841 64,29.841 c 8.65,0 16.544,3.222 22.563,8.523 z m -30.744,-7.53 -0.005,0.003 -0.097,0.02 0.102,-0.023 z m -6.393,2.269 c 0.453,0.61 6.771,9.175 12.684,19.685 -16.403,4.355 -30.639,4.185 -31.539,4.169 2.218,-10.578 9.328,-19.352 18.855,-23.854 z M 29.841,64 c 0,-0.363 0.016,-0.722 0.027,-1.083 0.603,0.016 17.483,0.398 35.071,-4.866 0.98,1.917 1.914,3.862 2.773,5.805 -0.452,0.127 -0.901,0.263 -1.347,0.407 C 47.931,70.222 38.58,86.812 38.58,86.812 l 0.015,0.018 C 33.154,80.779 29.841,72.778 29.841,64 z M 64,98.159 c -8.268,0 -15.85,-2.938 -21.759,-7.827 0.451,0.361 0.764,0.597 0.764,0.597 0,0 6.55,-14.281 26.809,-21.34 L 70.04,69.515 C 74.848,82.009 76.832,92.47 77.338,95.457 73.239,97.196 68.732,98.159 64,98.159 z M 83.089,92.332 C 82.743,90.272 80.92,80.246 76.44,67.934 c 11.025,-1.765 20.579,1.255 21.286,1.487 -1.518,9.521 -6.967,17.733 -14.637,22.911 z"
     inkscape:connector-curvature="0"
     id="path4"
     style="fill:#ffffff;fill-rule:evenodd" />
</svg>
